storage/app/icons/phosphoricons/thin/identification-badge-thin.svg

<svg xmlns="http://www.w3.org/2000/svg" fill="currentColor" viewBox="0 0 256 256"><path d="M146.7 166.75a36 36 0 1 0-37.4 0 63.6 63.6 0 0 0-32.5 22.85 4 4 0 0 0 6.4 4.8 56 56 0 0 1 89.6 0 4 4 0 0 0 6.4-4.8 63.65 63.65 0 0 0-32.5-22.85M100 136a28 28 0 1 1 28 28 28 28 0 0 1-28-28M200 28H56a12 12 0 0 0-12 12v176a12 12 0 0 0 12 12h144a12 12 0 0 0 12-12V40a12 12 0 0 0-12-12m4 188a4 4 0 0 1-4 4H56a4 4 0 0 1-4-4V40a4 4 0 0 1 4-4h144a4 4 0 0 1 4 4ZM92 64a4 4 0 0 1 4-4h64a4 4 0 0 1 0 8H96a4 4 0 0 1-4-4"/></svg>

<svg xmlns="http://www.w3.org/2000/svg" viewBox="0 0 256 256" fill="currentColor"><path d="M146.7,166.75a36,36,0,1,0-37.4,0A63.61,63.61,0,0,0,76.8,189.6a4,4,0,0,0,6.4,4.8,56,56,0,0,1,89.6,0,4,4,0,0,0,6.4-4.8A63.65,63.65,0,0,0,146.7,166.75ZM100,136a28,28,0,1,1,28,28A28,28,0,0,1,100,136ZM200,28H56A12,12,0,0,0,44,40V216a12,12,0,0,0,12,12H200a12,12,0,0,0,12-12V40A12,12,0,0,0,200,28Zm4,188a4,4,0,0,1-4,4H56a4,4,0,0,1-4-4V40a4,4,0,0,1,4-4H200a4,4,0,0,1,4,4ZM92,64a4,4,0,0,1,4-4h64a4,4,0,0,1,0,8H96A4,4,0,0,1,92,64Z"/></svg>
